X:1
T:Love God with All Your Soul and Strength
T:Text: Deuteronomy 6:5; Leviticus 19:18; vers. Isaac Watts, 1715 Tune: English, 16th cent.; adapt. Edward Hodges, c. 1835
T:CM FARRANT www.hymnary.org/text/love_god_with_all_your_soul_and_strength
T:Love God with All Your Soul and Strength
T:This hymn is in the public domain. You may freely use this score for personal and congregational worship. If you reproduce the score, please credit Hymnary.org as the source. 
T:This hymn is in the public domain. You may freely use this score for personal and congregational worship. If you reproduce the score, please credit Hymnary.org as the source. 
Z:This hymn is in the public domain. You may freely use this score for personal and congregational worship. If you reproduce the score, please credit Hymnary.org as the source.
%%score ( 1 2 ) ( 3 4 )
L:1/8
M:4/4
K:F
V:1 treble nm="SOPRANO ALTO" snm="S. A."
V:2 treble 
V:3 bass nm="TENOR BASS" snm="T. B."
V:4 bass 
V:1
 F2 | F3 G A2 G2 | F2 B2 G2 G2 | A=B c2 c2 B2 | c6 |1 F2 | B2 B2 A2 G2 | F2 G2 E2 A2 | %8
w: Love|God with all your|soul and strength, with|all * your heart and|mind.|And|love your neigh- bor|as your- self; be|
 DE F2 F2 E2 | F6 x2 |] %10
w: faith- * ful, just, and|kind.|
V:2
 C2 | D3 E F2 E2 | D2 F2 E2 E2 | F2 EF G2 F2 | E6 |1 F2 | G2 G2 F2 E2 | D2 D2 C2 C2 | %8
 B,2 A,B, C2 C2 | C6 x2 |] %10
V:3
 A,2 | A,3 C C2 C2 | A,2 D2 C2 C2 | C2 C2 D2 D2 | C6 |1 A,2 | D2 C2 C2 C2 | A,2 B,2 G,2 F,2 | %8
 F,2 F,2 G,2 G,2 | A,6 x2 |] %10
V:4
 F,2 | D,3 C, F,2 C,2 | D,2 B,,2 C,2 C,2 | F,2 A,2 G,2 G,2 | C,6 |1 F,2 | F,2 E,2 F,2 C,2 | %7
 D,2 G,,2 C,2 F,,2 | B,,2 D,2 C,2 C,2 | F,,6 x2 |] %10

